src/assets/images/map/markers/found/icon_79.svg

<?xml version="1.0" encoding="UTF-8" standalone="no"?>
<svg
   xmlns:dc="http://purl.org/dc/elements/1.1/"
   xmlns:cc="http://creativecommons.org/ns#"
   xmlns:rdf="http://www.w3.org/1999/02/22-rdf-syntax-ns#"
   xmlns:svg="http://www.w3.org/2000/svg"
   xmlns="http://www.w3.org/2000/svg"
   xmlns:sodipodi="http://sodipodi.sourceforge.net/DTD/sodipodi-0.dtd"
   xmlns:inkscape="http://www.inkscape.org/namespaces/inkscape"
   width="127pt"
   height="68pt"
   viewBox="0 0 127 68"
   version="1.1"
   id="svg5"
   sodipodi:docname="icon_79.svg"
   inkscape:version="0.92.1 r15371">
  <metadata
     id="metadata11">
    <rdf:RDF>
      <cc:Work
         rdf:about="">
        <dc:format>image/svg+xml</dc:format>
        <dc:type
           rdf:resource="http://purl.org/dc/dcmitype/StillImage" />
      </cc:Work>
    </rdf:RDF>
  </metadata>
  <defs
     id="defs9" />
  <sodipodi:namedview
     pagecolor="#ffffff"
     bordercolor="#666666"
     borderopacity="1"
     objecttolerance="10"
     gridtolerance="10"
     guidetolerance="10"
     inkscape:pageopacity="0"
     inkscape:pageshadow="2"
     inkscape:window-width="1366"
     inkscape:window-height="685"
     id="namedview7"
     showgrid="false"
     inkscape:zoom="2.1496063"
     inkscape:cx="-9.7692308"
     inkscape:cy="45.333333"
     inkscape:window-x="0"
     inkscape:window-y="0"
     inkscape:window-maximized="1"
     inkscape:current-layer="surface1" />
  <g
     id="surface1">
    <path
       style="fill:#00ff00;fill-opacity:1;fill-rule:nonzero;stroke:none"
       d="m 61.992188,58.902344 h -25.46875 l -2.007813,1.679687 2.007813,2.019531 h 25.46875 l 2.011718,-2.019531 -2.011718,-1.679687 M 127,29.289062 c 0,2.242188 -3.91016,3.476563 -11.72656,3.703126 l -1.67578,3.699218 c 3.57422,3.367188 7.37109,5.160156 11.39062,5.382813 -5.13672,5.160156 -10.16406,7.851562 -15.07812,8.078125 -2.45703,0.449218 -4.91407,-1.011719 -7.3711,-4.375 -8.265622,4.488281 -18.429685,7.964844 -30.496091,10.429687 v 5.050781 l -1.671875,4.371094 c -1.34375,1.570313 -2.792969,2.355469 -4.359375,2.355469 H 36.523438 L 33.175781,66.640625 30.828125,61.257812 27.8125,54.191406 C 16.195312,49.925781 8.9375,43.644531 6.03125,35.347656 2.011719,34 0,31.980469 0,29.289062 0,26.371094 2.011719,24.355469 6.03125,23.230469 8.265625,16.503906 13.402344,10.894531 21.445312,6.40625 29.933594,2.144531 39.429688,0.015625 49.929688,0.015625 l 26.804687,3.699219 c 9.609375,2.242187 17.875,5.382812 24.796875,9.421875 2.68359,-4.484375 5.47656,-6.503907 8.37891,-6.054688 4.91406,0.445313 9.9414,3.25 15.07812,8.410157 l -4.01953,0.671874 -8.37891,5.386719 L 114.9375,25.25 C 122.98047,25.699219 127,27.046875 127,29.289062"
       id="path2"
       inkscape:connector-curvature="0" />
  </g>
</svg>

<?xml version="1.0" encoding="UTF-8"?>
<svg xmlns="http://www.w3.org/2000/svg" xmlns:xlink="http://www.w3.org/1999/xlink" width="127pt" height="68pt" viewBox="0 0 127 68" version="1.1">
<g id="surface1">
<path style=" stroke:none;fill-rule:nonzero;fill:rgb(100%,100%,100%);fill-opacity:1;" d="M 61.992188 58.902344 L 36.523438 58.902344 L 34.515625 60.582031 L 36.523438 62.601562 L 61.992188 62.601562 L 64.003906 60.582031 L 61.992188 58.902344 M 127 29.289062 C 127 31.53125 123.089844 32.765625 115.273438 32.992188 L 113.597656 36.691406 C 117.171875 40.058594 120.96875 41.851562 124.988281 42.074219 C 119.851562 47.234375 114.824219 49.925781 109.910156 50.152344 C 107.453125 50.601562 104.996094 49.140625 102.539062 45.777344 C 94.273438 50.265625 84.109375 53.742188 72.042969 56.207031 L 72.042969 61.257812 L 70.371094 65.628906 C 69.027344 67.199219 67.578125 67.984375 66.011719 67.984375 L 36.523438 67.984375 L 33.175781 66.640625 L 30.828125 61.257812 L 27.8125 54.191406 C 16.195312 49.925781 8.9375 43.644531 6.03125 35.347656 C 2.011719 34 0 31.980469 0 29.289062 C 0 26.371094 2.011719 24.355469 6.03125 23.230469 C 8.265625 16.503906 13.402344 10.894531 21.445312 6.40625 C 29.933594 2.144531 39.429688 0.015625 49.929688 0.015625 L 76.734375 3.714844 C 86.34375 5.957031 94.609375 9.097656 101.53125 13.136719 C 104.214844 8.652344 107.007812 6.632812 109.910156 7.082031 C 114.824219 7.527344 119.851562 10.332031 124.988281 15.492188 L 120.96875 16.164062 L 112.589844 21.550781 L 114.9375 25.25 C 122.980469 25.699219 127 27.046875 127 29.289062 "/>
</g>
</svg>
